_includes/icons/join/code-of-conduct.svg

<svg id="Layer_1" data-name="Layer 1" xmlns="http://www.w3.org/2000/svg" viewBox="0 0 46 52"><defs><style>.cls-1{fill:#609c70;}.cls-2{fill:none;stroke:#54565a;}</style></defs><path class="cls-1" d="M46,37.15629V4.34384a2.34483,2.34483,0,0,0-2.3571-2.34375H11.4286A9.40433,9.40433,0,0,0,2,11.37509v31.25a9.40432,9.40432,0,0,0,9.4286,9.375H43.6429A2.34483,2.34483,0,0,0,46,49.65629v-1.5624a2.357,2.357,0,0,0-.8741-1.8262,21.65593,21.65593,0,0,1,0-7.2949A2.32273,2.32273,0,0,0,46,37.15629ZM14.5714,15.086a.58937.58937,0,0,1,.5893-.5859H35.9821a.58937.58937,0,0,1,.5893.5859v1.9532a.58937.58937,0,0,1-.5893.5859H15.1607a.58937.58937,0,0,1-.5893-.5859Zm0,6.25a.58937.58937,0,0,1,.5893-.5859H35.9821a.58937.58937,0,0,1,.5893.5859v1.9532a.58937.58937,0,0,1-.5893.5859H15.1607a.58937.58937,0,0,1-.5893-.5859Zm24.8875,24.4141H11.4286a3.12505,3.12505,0,1,1,0-6.25H39.4589A34.95967,34.95967,0,0,0,39.4589,45.75009Z"/><path class="cls-2" d="M42.6437,44.39989l.0425.1551.1249.1012a1.8567,1.8567,0,0,1,.6889,1.4377v1.5624a1.84479,1.84479,0,0,1-1.8571,1.8438H9.42857A8.90431,8.90431,0,0,1,.5,40.62509v-31.25A8.90433,8.90433,0,0,1,9.42857.50009H41.6429A1.84481,1.84481,0,0,1,43.5,2.34384V35.15629a1.82252,1.82252,0,0,1-.6845,1.4245l-.1285.1017-.0433.158a17.01383,17.01383,0,0,0-.3272,3.7797A17.01323,17.01323,0,0,0,42.6437,44.39989Zm-5.1848-.1498h.559l-.0621-.5555a34.48608,34.48608,0,0,1,0-6.139l.0621-.5555H9.42857a3.625,3.625,0,1,0,0,7.25Zm-24.2982-32.25a1.08935,1.08935,0,0,0-1.0893,1.0859v1.9532a1.08935,1.08935,0,0,0,1.0893,1.0859H33.9821a1.08929,1.08929,0,0,0,1.0893-1.0859V13.086a1.08929,1.08929,0,0,0-1.0893-1.0859Zm0,6.25a1.08935,1.08935,0,0,0-1.0893,1.0859v1.9532a1.08935,1.08935,0,0,0,1.0893,1.0859H33.9821a1.08929,1.08929,0,0,0,1.0893-1.0859V19.336a1.08929,1.08929,0,0,0-1.0893-1.0859Z"/></svg>

<svg width="46" height="52" viewBox="0 0 46 52" fill="none" xmlns="http://www.w3.org/2000/svg">
<path d="M46 37.1562V4.34375C46 3.04492 44.9491 2 43.6429 2H11.4286C6.22321 2 2 6.19922 2 11.375V42.625C2 47.8008 6.22321 52 11.4286 52H43.6429C44.9491 52 46 50.9551 46 49.6562V48.0938C46 47.3613 45.6562 46.6973 45.1259 46.2676C44.7134 44.7637 44.7134 40.4766 45.1259 38.9727C45.6562 38.5527 46 37.8887 46 37.1562ZM14.5714 15.0859C14.5714 14.7637 14.8366 14.5 15.1607 14.5H35.9821C36.3062 14.5 36.5714 14.7637 36.5714 15.0859V17.0391C36.5714 17.3613 36.3062 17.625 35.9821 17.625H15.1607C14.8366 17.625 14.5714 17.3613 14.5714 17.0391V15.0859ZM14.5714 21.3359C14.5714 21.0137 14.8366 20.75 15.1607 20.75H35.9821C36.3062 20.75 36.5714 21.0137 36.5714 21.3359V23.2891C36.5714 23.6113 36.3062 23.875 35.9821 23.875H15.1607C14.8366 23.875 14.5714 23.6113 14.5714 23.2891V21.3359ZM39.4589 45.75H11.4286C9.69018 45.75 8.28571 44.3535 8.28571 42.625C8.28571 40.9062 9.7 39.5 11.4286 39.5H39.4589C39.2723 41.1699 39.2723 44.0801 39.4589 45.75Z" fill="#80b690"/>
<path d="M42.6437 44.3998L42.6862 44.5549L42.8111 44.6561C43.2301 44.9955 43.5 45.5194 43.5 46.0938V47.6562C43.5 48.6763 42.6757 49.5 41.6429 49.5H9.42857C4.49667 49.5 0.5 45.522 0.5 40.625V9.375C0.5 4.47804 4.49667 0.5 9.42857 0.5H41.6429C42.6757 0.5 43.5 1.32375 43.5 2.34375V35.1562C43.5 35.7316 43.2295 36.2529 42.8155 36.5807L42.687 36.6824L42.6437 36.8404C42.4181 37.6631 42.3165 39.1704 42.3165 40.6201C42.3165 42.0698 42.4181 43.5772 42.6437 44.3998ZM37.4589 44.25H38.0179L37.9558 43.6945C37.7733 42.0615 37.7733 39.1885 37.9558 37.5555L38.0179 37H37.4589H9.42857C7.42655 37 5.78571 38.6274 5.78571 40.625C5.78571 42.6323 7.41673 44.25 9.42857 44.25H37.4589ZM13.1607 12C12.5632 12 12.0714 12.4848 12.0714 13.0859V15.0391C12.0714 15.6402 12.5632 16.125 13.1607 16.125H33.9821C34.5797 16.125 35.0714 15.6402 35.0714 15.0391V13.0859C35.0714 12.4848 34.5797 12 33.9821 12H13.1607ZM13.1607 18.25C12.5632 18.25 12.0714 18.7348 12.0714 19.3359V21.2891C12.0714 21.8902 12.5632 22.375 13.1607 22.375H33.9821C34.5797 22.375 35.0714 21.8902 35.0714 21.2891V19.3359C35.0714 18.7348 34.5797 18.25 33.9821 18.25H13.1607Z" stroke="#1c1d20"/>
</svg>
